static/img/kroki/82889222b175a29f39ae6695b97bbb0c.svg

<?xml version="1.0" encoding="us-ascii" standalone="no"?><svg xmlns="http://www.w3.org/2000/svg" xmlns:xlink="http://www.w3.org/1999/xlink" contentStyleType="text/css" height="152px" preserveAspectRatio="none" style="width:453px;height:152px;" version="1.1" viewBox="0 0 453 152" width="453px" zoomAndPan="magnify"><defs/><g><!--class azure_dscp_configuration--><g id="elem_azure_dscp_configuration"><rect codeLine="22" fill="#3D176E" height="39.7891" id="azure_dscp_configuration" rx="2.5" ry="2.5" style="stroke:#000D19;stroke-width:0.5;" width="253" x="123.5" y="106.79"/><ellipse cx="138.5" cy="126.6845" fill="#ADD1B2" rx="11" ry="11" style="stroke:#181818;stroke-width:1.0;"/><path d="M141.4688,132.3252 Q140.8906,132.622 140.25,132.7627 Q139.6094,132.9189 138.9063,132.9189 Q136.4063,132.9189 135.0781,131.2783 Q133.7656,129.622 133.7656,126.497 Q133.7656,123.372 135.0781,121.7158 Q136.4063,120.0595 138.9063,120.0595 Q139.6094,120.0595 140.25,120.2158 Q140.9063,120.372 141.4688,120.6689 L141.4688,123.3877 Q140.8438,122.8095 140.25,122.5439 Q139.6563,122.2627 139.0313,122.2627 Q137.6875,122.2627 137,123.3408 Q136.3125,124.4033 136.3125,126.497 Q136.3125,128.5908 137,129.6689 Q137.6875,130.7314 139.0313,130.7314 Q139.6563,130.7314 140.25,130.4658 Q140.8438,130.1845 141.4688,129.6064 L141.4688,132.3252 Z " fill="#000000"/><text fill="#D9B8FF" font-family="Helvetica" font-size="17" lengthAdjust="spacing" textLength="211" x="157.5" y="132.5698">azure_dscp_configuration</text></g><!--class azure_network_interface--><g id="elem_azure_network_interface"><rect codeLine="24" fill="#3D176E" height="39.7891" id="azure_network_interface" rx="2.5" ry="2.5" style="stroke:#000D19;stroke-width:0.5;" width="250" x="7" y="7"/><ellipse cx="22" cy="26.8945" fill="#ADD1B2" rx="11" ry="11" style="stroke:#181818;stroke-width:1.0;"/><path d="M24.9688,32.5352 Q24.3906,32.832 23.75,32.9727 Q23.1094,33.1289 22.4063,33.1289 Q19.9063,33.1289 18.5781,31.4883 Q17.2656,29.832 17.2656,26.707 Q17.2656,23.582 18.5781,21.9258 Q19.9063,20.2695 22.4063,20.2695 Q23.1094,20.2695 23.75,20.4258 Q24.4063,20.582 24.9688,20.8789 L24.9688,23.5977 Q24.3438,23.0195 23.75,22.7539 Q23.1563,22.4727 22.5313,22.4727 Q21.1875,22.4727 20.5,23.5508 Q19.8125,24.6133 19.8125,26.707 Q19.8125,28.8008 20.5,29.8789 Q21.1875,30.9414 22.5313,30.9414 Q23.1563,30.9414 23.75,30.6758 Q24.3438,30.3945 24.9688,29.8164 L24.9688,32.5352 Z " fill="#000000"/><text fill="#D9B8FF" font-family="Helvetica" font-size="17" lengthAdjust="spacing" textLength="208" x="41" y="32.7798">azure_network_interface</text></g><!--class azure_subnet--><g id="elem_azure_subnet"><rect codeLine="26" fill="#3D176E" height="39.7891" id="azure_subnet" rx="2.5" ry="2.5" style="stroke:#000D19;stroke-width:0.5;" width="154" x="292" y="7"/><ellipse cx="307" cy="26.8945" fill="#ADD1B2" rx="11" ry="11" style="stroke:#181818;stroke-width:1.0;"/><path d="M309.9688,32.5352 Q309.3906,32.832 308.75,32.9727 Q308.1094,33.1289 307.4063,33.1289 Q304.9063,33.1289 303.5781,31.4883 Q302.2656,29.832 302.2656,26.707 Q302.2656,23.582 303.5781,21.9258 Q304.9063,20.2695 307.4063,20.2695 Q308.1094,20.2695 308.75,20.4258 Q309.4063,20.582 309.9688,20.8789 L309.9688,23.5977 Q309.3438,23.0195 308.75,22.7539 Q308.1563,22.4727 307.5313,22.4727 Q306.1875,22.4727 305.5,23.5508 Q304.8125,24.6133 304.8125,26.707 Q304.8125,28.8008 305.5,29.8789 Q306.1875,30.9414 307.5313,30.9414 Q308.1563,30.9414 308.75,30.6758 Q309.3438,30.3945 309.9688,29.8164 L309.9688,32.5352 Z " fill="#000000"/><text fill="#D9B8FF" font-family="Helvetica" font-size="17" lengthAdjust="spacing" textLength="112" x="326" y="32.7798">azure_subnet</text></g><!--link azure_network_interface to azure_dscp_configuration--><g id="link_azure_network_interface_azure_dscp_configuration"><path codeLine="28" d="M155.31,47.22 C176,64.36 201.4404,85.4412 222.1204,102.5812 " fill="none" id="azure_network_interface-to-azure_dscp_configuration" style="stroke:#1A83AF;stroke-width:2.0;"/><polygon fill="#1A83AF" points="226.74,106.41,222.3632,97.5871,222.8904,103.2193,217.2581,103.7465,226.74,106.41" style="stroke:#1A83AF;stroke-width:2.0;"/></g><!--link azure_subnet to azure_dscp_configuration--><g id="link_azure_subnet_azure_dscp_configuration"><path codeLine="29" d="M345.49,47.22 C324.63,64.36 298.9449,85.4598 278.0949,102.5998 " fill="none" id="azure_subnet-to-azure_dscp_configuration" style="stroke:#1A83AF;stroke-width:2.0;"/><polygon fill="#1A83AF" points="273.46,106.41,282.9525,103.7847,277.3224,103.2348,277.8722,97.6048,273.46,106.41" style="stroke:#1A83AF;stroke-width:2.0;"/></g><!--SRC=[ZP1FJy904CNlV8fDE9DGYHOk9fM4w8KOyMOCcUxEmgRjRZCxjG7ZTvS_QfQMWjTvltdlpQoDGe55oHjHO94Y-PxFZ2s1e109aQkdBdSa-bg37iLDSUOiNmNcKA1unFm3sKXe4gzh8pEBtekRG7e0cQt8LLOTxPd0-fs4bWDgceFt2JEPj68CogX9EjQwIJPD-oCLnNVOmXmff1zaE1ogQD94haPTlFkFM9WjYYXysjmnjcgs8WxKnPPx8YZPElHNx-pu34ePknAtmUpbs8aiqibyiGRbwZsj8VTXZ6SaTBmfSTgw2YTZfUEpy5CNBFUV4x2j29VAot8fdTLcLH6mSLPyzhvE48jSEygMnkwiDKXi4RvATz1XtBKoUEj7oNYKpDu7zvtHlHExVwry0m00]--></g></svg>

<svg xmlns="http://www.w3.org/2000/svg" width="453" height="152" viewBox="0 0 453 152"><rect width="253" height="39.789" x="123.5" y="106.79" fill="#3D176E" rx="2.5" ry="2.5" style="stroke:#000d19;stroke-width:.5"/><circle cx="138.5" cy="126.684" r="11" fill="#ADD1B2" style="stroke:#181818;stroke-width:1"/><path d="M141.469 132.325q-.578.297-1.219.438-.64.156-1.344.156-2.5 0-3.828-1.64-1.312-1.657-1.312-4.782t1.312-4.781q1.328-1.656 3.828-1.656.703 0 1.344.156.656.156 1.219.453v2.719q-.625-.579-1.219-.844-.594-.281-1.219-.281-1.344 0-2.031 1.078-.687 1.062-.687 3.156t.687 3.172q.688 1.062 2.031 1.062.625 0 1.219-.265.594-.281 1.219-.86z"/><text x="157.5" y="132.57" fill="#D9B8FF" font-family="Helvetica" font-size="17" textLength="211">azure_dscp_configuration</text><rect width="250" height="39.789" x="7" y="7" fill="#3D176E" rx="2.5" ry="2.5" style="stroke:#000d19;stroke-width:.5"/><circle cx="22" cy="26.895" r="11" fill="#ADD1B2" style="stroke:#181818;stroke-width:1"/><path d="M24.969 32.535q-.578.297-1.219.438-.64.156-1.344.156-2.5 0-3.828-1.64-1.312-1.657-1.312-4.782t1.312-4.781q1.328-1.656 3.828-1.656.703 0 1.344.156.656.156 1.219.453v2.719q-.625-.578-1.219-.844-.594-.281-1.219-.281-1.343 0-2.031 1.078-.687 1.062-.687 3.156t.687 3.172q.688 1.062 2.031 1.062.625 0 1.219-.265.594-.281 1.219-.86z"/><text x="41" y="32.78" fill="#D9B8FF" font-family="Helvetica" font-size="17" textLength="208">azure_network_interface</text><rect width="154" height="39.789" x="292" y="7" fill="#3D176E" rx="2.5" ry="2.5" style="stroke:#000d19;stroke-width:.5"/><circle cx="307" cy="26.895" r="11" fill="#ADD1B2" style="stroke:#181818;stroke-width:1"/><path d="M309.969 32.535q-.578.297-1.219.438-.64.156-1.344.156-2.5 0-3.828-1.64-1.312-1.657-1.312-4.782t1.312-4.781q1.328-1.656 3.828-1.656.703 0 1.344.156.656.156 1.219.453v2.719q-.625-.578-1.219-.844-.594-.281-1.219-.281-1.344 0-2.031 1.078-.687 1.062-.687 3.156t.687 3.172q.688 1.062 2.031 1.062.625 0 1.219-.265.594-.281 1.219-.86z"/><text x="326" y="32.78" fill="#D9B8FF" font-family="Helvetica" font-size="17" textLength="112">azure_subnet</text><path fill="none" d="M155.31 47.22c20.69 17.14 46.13 38.221 66.81 55.361" style="stroke:#1a83af;stroke-width:2"/><path fill="#1A83AF" d="m226.74 106.41-4.377-8.823.527 5.632-5.632.528z" style="stroke:#1a83af;stroke-width:2"/><path fill="none" d="M345.49 47.22c-20.86 17.14-46.545 38.24-67.395 55.38" style="stroke:#1a83af;stroke-width:2"/><path fill="#1A83AF" d="m273.46 106.41 9.493-2.625-5.63-.55.55-5.63z" style="stroke:#1a83af;stroke-width:2"/></svg>
